public/img/svgs/shapes/image-block-shape.svg

<svg width="330" height="80" viewBox="0 0 330 80" fill="none" xmlns="http://www.w3.org/2000/svg">
<g clip-path="url(#clip0)">
<path d="M302.5 9.06667C296.525 13.0895 292.342 16.64 281.841 16.64C271.34 16.64 266.632 13.5314 260.477 9.50856C259.209 8.59428 257.942 7.86286 256.494 6.94858C250.7 3.29143 243.458 0 231.509 0C219.74 0 212.498 3.29143 206.524 6.94858C205.075 7.86286 203.808 8.59428 202.541 9.50856C196.566 13.5314 191.678 16.64 181.358 16.64C170.857 16.64 166.15 13.5314 160.175 9.50856C158.908 8.59428 157.64 7.86286 156.192 6.94858C150.398 3.29143 143.156 0 131.207 0C119.439 0 112.197 3.29143 106.222 6.94858C104.774 7.86286 103.506 8.59428 102.239 9.50856C96.2643 13.5314 91.3759 16.64 81.0561 16.64C70.5552 16.64 65.8479 13.5314 59.8732 9.50856C58.6059 8.59428 57.3386 7.86286 55.8902 6.94858C50.0966 3.29143 42.8545 0 30.9052 0C19.137 0 11.895 3.29143 5.92035 6.94858C4.47192 7.86286 3.20456 8.59428 1.93723 9.50856C-4.03745 13.5314 -8.92578 16.64 -19.2456 16.64C-29.7465 16.64 -34.4539 13.5314 -40.4285 9.50856C-41.6959 8.59428 -42.9632 7.86286 -44.4116 6.94858C-50.2052 3.29143 -57.4472 0 -69.3965 0C-81.1648 0 -88.4068 3.29143 -94.3814 6.94858C-95.8298 7.86286 -97.0972 8.59428 -98.3645 9.50856C-104.339 13.5314 -109.228 16.64 -119.547 16.64C-130.048 16.64 -134.756 13.5314 -140.73 9.50856C-141.998 8.59428 -143.265 7.86286 -144.713 6.94858C-150.507 3.29143 -157.749 0 -169.698 0C-181.466 0 -188.709 3.29143 -194.683 6.94858C-196.132 7.86286 -197.399 8.59428 -198.666 9.50856C-204.641 13.5314 -209.529 16.64 -219.849 16.64C-230.35 16.64 -235.057 13.5314 -241.032 9.50856C-242.299 8.59428 -243.567 7.86286 -245.015 6.94858C-250.809 3.29143 -258.051 0 -270 0V13.8972C-259.499 13.8972 -254.792 17.0057 -248.817 21.0286C-242.118 25.4171 -234.514 30.5371 -220.03 30.5371C-205.546 30.5371 -197.942 25.6 -191.243 21.0286C-185.269 17.0057 -180.38 13.8972 -170.06 13.8972C-159.559 13.8972 -154.852 17.0057 -148.877 21.0286C-142.179 25.4171 -134.575 30.5371 -120.091 30.5371C-105.607 30.5371 -98.0024 25.6 -91.3036 21.0286C-85.3289 17.0057 -80.4406 13.8972 -70.1207 13.8972C-59.6198 13.8972 -54.9125 17.0057 -48.9379 21.0286C-42.239 25.4171 -34.6349 30.5371 -20.1509 30.5371C-5.66687 30.5371 1.93723 25.6 8.63611 21.0286C14.6107 17.0057 19.4991 13.8972 29.8189 13.8972C40.3198 13.8972 45.0271 17.0057 51.0018 21.0286C57.7006 25.4171 65.3047 30.5371 79.7888 30.5371C94.2727 30.5371 101.877 25.6 108.576 21.0286C114.55 17.0057 119.439 13.8972 129.759 13.8972C140.259 13.8972 144.967 17.0057 150.941 21.0286C157.64 25.4171 165.244 30.5371 179.728 30.5371C194.212 30.5371 201.816 25.6 208.515 21.0286C214.49 17.0057 219.378 13.8972 229.698 13.8972C240.199 13.8972 244.906 17.0057 251.062 21.0286C257.761 25.4171 265.365 30.5371 279.849 30.5371C294.333 30.5371 301.937 25.6 308.636 21.0286C314.611 17.0057 319.499 13.8972 330 13.8972V0C325 0 320 0 315 2.26666C310 4.53333 303.767 8.33524 302.5 9.06667Z" fill="#77E8C6"/>
<path d="M302.5 54.4C296.525 58.4229 292.342 61.9734 281.841 61.9734C271.34 61.9734 266.632 58.8648 260.477 54.8419C259.209 53.9276 257.942 53.1962 256.494 52.2819C250.7 48.6248 243.458 45.3333 231.509 45.3333C219.74 45.3333 212.498 48.6248 206.524 52.2819C205.075 53.1962 203.808 53.9276 202.541 54.8419C196.566 58.8648 191.678 61.9734 181.358 61.9734C170.857 61.9734 166.15 58.8648 160.175 54.8419C158.908 53.9276 157.64 53.1962 156.192 52.2819C150.398 48.6248 143.156 45.3333 131.207 45.3333C119.439 45.3333 112.197 48.6248 106.222 52.2819C104.774 53.1962 103.506 53.9276 102.239 54.8419C96.2643 58.8648 91.3759 61.9734 81.0561 61.9734C70.5552 61.9734 65.8479 58.8648 59.8732 54.8419C58.6059 53.9276 57.3386 53.1962 55.8902 52.2819C50.0966 48.6248 42.8545 45.3333 30.9052 45.3333C19.137 45.3333 11.895 48.6248 5.92035 52.2819C4.47192 53.1962 3.20456 53.9276 1.93723 54.8419C-4.03745 58.8648 -8.92578 61.9734 -19.2456 61.9734C-29.7465 61.9734 -34.4539 58.8648 -40.4285 54.8419C-41.6959 53.9276 -42.9632 53.1962 -44.4116 52.2819C-50.2052 48.6248 -57.4472 45.3333 -69.3965 45.3333C-81.1648 45.3333 -88.4068 48.6248 -94.3814 52.2819C-95.8298 53.1962 -97.0972 53.9276 -98.3645 54.8419C-104.339 58.8648 -109.228 61.9734 -119.547 61.9734C-130.048 61.9734 -134.756 58.8648 -140.73 54.8419C-141.998 53.9276 -143.265 53.1962 -144.713 52.2819C-150.507 48.6248 -157.749 45.3333 -169.698 45.3333C-181.466 45.3333 -188.709 48.6248 -194.683 52.2819C-196.132 53.1962 -197.399 53.9276 -198.666 54.8419C-204.641 58.8648 -209.529 61.9734 -219.849 61.9734C-230.35 61.9734 -235.057 58.8648 -241.032 54.8419C-242.299 53.9276 -243.567 53.1962 -245.015 52.2819C-250.809 48.6248 -258.051 45.3333 -270 45.3333V59.2305C-259.499 59.2305 -254.792 62.3391 -248.817 66.3619C-242.118 70.7505 -234.514 75.8705 -220.03 75.8705C-205.546 75.8705 -197.942 70.9333 -191.243 66.3619C-185.269 62.3391 -180.38 59.2305 -170.06 59.2305C-159.559 59.2305 -154.852 62.3391 -148.877 66.3619C-142.179 70.7505 -134.575 75.8705 -120.091 75.8705C-105.607 75.8705 -98.0024 70.9333 -91.3036 66.3619C-85.3289 62.3391 -80.4406 59.2305 -70.1207 59.2305C-59.6198 59.2305 -54.9125 62.3391 -48.9379 66.3619C-42.239 70.7505 -34.6349 75.8705 -20.1509 75.8705C-5.66687 75.8705 1.93723 70.9333 8.63611 66.3619C14.6107 62.3391 19.4991 59.2305 29.8189 59.2305C40.3198 59.2305 45.0271 62.3391 51.0018 66.3619C57.7006 70.7505 65.3047 75.8705 79.7888 75.8705C94.2727 75.8705 101.877 70.9333 108.576 66.3619C114.55 62.3391 119.439 59.2305 129.759 59.2305C140.259 59.2305 144.967 62.3391 150.941 66.3619C157.64 70.7505 165.244 75.8705 179.728 75.8705C194.212 75.8705 201.816 70.9333 208.515 66.3619C214.49 62.3391 219.378 59.2305 229.698 59.2305C240.199 59.2305 244.906 62.3391 251.062 66.3619C257.761 70.7505 265.365 75.8705 279.849 75.8705C294.333 75.8705 301.937 70.9333 308.636 66.3619C314.611 62.3391 319.499 59.2305 330 59.2305V45.3333C325 45.3333 320 45.3333 315 47.6C310 49.8667 303.767 53.6686 302.5 54.4Z" fill="#77E8C6"/>
</g>
<defs>
<clipPath id="clip0">
<rect width="330" height="80" fill="white"/>
</clipPath>
</defs>
</svg>

<svg width="330" height="80" fill="none" xmlns="http://www.w3.org/2000/svg"><g clip-path="url(#clip0)" fill="#77E8C6"><path d="M302.5 9.067c-5.975 4.022-10.158 7.573-20.659 7.573s-15.209-3.109-21.364-7.131c-1.268-.915-2.535-1.646-3.983-2.56C250.7 3.29 243.458 0 231.509 0c-11.769 0-19.011 3.291-24.985 6.949-1.449.914-2.716 1.645-3.983 2.56-5.975 4.022-10.863 7.131-21.183 7.131-10.501 0-15.208-3.109-21.183-7.131-1.267-.915-2.535-1.646-3.983-2.56C150.398 3.29 143.156 0 131.207 0c-11.768 0-19.01 3.291-24.985 6.949-1.448.914-2.716 1.645-3.983 2.56-5.975 4.022-10.863 7.131-21.183 7.131-10.5 0-15.208-3.109-21.183-7.131-1.267-.915-2.534-1.646-3.983-2.56C50.097 3.29 42.855 0 30.905 0 19.137 0 11.895 3.291 5.92 6.949c-1.448.914-2.715 1.645-3.983 2.56-5.974 4.022-10.863 7.131-21.183 7.131-10.5 0-15.208-3.109-21.183-7.131-1.267-.915-2.534-1.646-3.983-2.56C-50.205 3.29-57.447 0-69.397 0c-11.768 0-19.01 3.291-24.984 6.949-1.449.914-2.716 1.645-3.984 2.56-5.974 4.022-10.863 7.131-21.182 7.131-10.501 0-15.209-3.109-21.183-7.131-1.268-.915-2.535-1.646-3.983-2.56C-150.507 3.29-157.749 0-169.698 0c-11.768 0-19.011 3.291-24.985 6.949-1.449.914-2.716 1.645-3.983 2.56-5.975 4.022-10.863 7.131-21.183 7.131-10.501 0-15.208-3.109-21.183-7.131-1.267-.915-2.535-1.646-3.983-2.56C-250.809 3.29-258.051 0-270 0v13.897c10.501 0 15.208 3.109 21.183 7.132 6.699 4.388 14.303 9.508 28.787 9.508 14.484 0 22.088-4.937 28.787-9.508 5.974-4.023 10.863-7.132 21.183-7.132 10.501 0 15.208 3.109 21.183 7.132 6.698 4.388 14.302 9.508 28.786 9.508 14.484 0 22.089-4.937 28.787-9.508 5.975-4.023 10.863-7.132 21.183-7.132 10.501 0 15.208 3.109 21.183 7.132 6.699 4.388 14.303 9.508 28.787 9.508 14.484 0 22.088-4.937 28.787-9.508 5.975-4.023 10.863-7.132 21.183-7.132 10.5 0 15.208 3.109 21.183 7.132 6.699 4.388 14.303 9.508 28.787 9.508 14.484 0 22.088-4.937 28.787-9.508 5.974-4.023 10.863-7.132 21.183-7.132 10.5 0 15.208 3.109 21.182 7.132 6.699 4.388 14.303 9.508 28.787 9.508 14.484 0 22.088-4.937 28.787-9.508 5.975-4.023 10.863-7.132 21.183-7.132 10.501 0 15.208 3.109 21.364 7.132 6.699 4.388 14.303 9.508 28.787 9.508 14.484 0 22.088-4.937 28.787-9.508 5.975-4.023 10.863-7.132 21.364-7.132V0c-5 0-10 0-15 2.267-5 2.266-11.233 6.068-12.5 6.8zm0 45.333c-5.975 4.023-10.158 7.573-20.659 7.573s-15.209-3.108-21.364-7.131c-1.268-.914-2.535-1.646-3.983-2.56-5.794-3.657-13.036-6.949-24.985-6.949-11.769 0-19.011 3.292-24.985 6.949-1.449.914-2.716 1.646-3.983 2.56-5.975 4.023-10.863 7.131-21.183 7.131-10.501 0-15.208-3.108-21.183-7.131-1.267-.914-2.535-1.646-3.983-2.56-5.794-3.657-13.036-6.949-24.985-6.949-11.768 0-19.01 3.292-24.985 6.949-1.448.914-2.716 1.646-3.983 2.56-5.975 4.023-10.863 7.131-21.183 7.131-10.5 0-15.208-3.108-21.183-7.131-1.267-.914-2.534-1.646-3.983-2.56-5.793-3.657-13.035-6.949-24.985-6.949-11.768 0-19.01 3.292-24.985 6.949-1.448.914-2.715 1.646-3.983 2.56-5.974 4.023-10.863 7.131-21.183 7.131-10.5 0-15.208-3.108-21.183-7.131-1.267-.914-2.534-1.646-3.983-2.56-5.793-3.657-13.035-6.949-24.985-6.949-11.768 0-19.01 3.292-24.984 6.949-1.449.914-2.716 1.646-3.984 2.56-5.974 4.023-10.863 7.131-21.182 7.131-10.501 0-15.209-3.108-21.183-7.131-1.268-.914-2.535-1.646-3.983-2.56-5.794-3.657-13.036-6.949-24.985-6.949-11.768 0-19.011 3.292-24.985 6.949-1.449.914-2.716 1.646-3.983 2.56-5.975 4.023-10.863 7.131-21.183 7.131-10.501 0-15.208-3.108-21.183-7.131-1.267-.914-2.535-1.646-3.983-2.56-5.794-3.657-13.036-6.949-24.985-6.949v13.898c10.501 0 15.208 3.108 21.183 7.13 6.699 4.39 14.303 9.51 28.787 9.51 14.484 0 22.088-4.938 28.787-9.51 5.974-4.022 10.863-7.13 21.183-7.13 10.501 0 15.208 3.108 21.183 7.13 6.698 4.39 14.302 9.51 28.786 9.51 14.484 0 22.089-4.938 28.787-9.51 5.975-4.022 10.863-7.13 21.183-7.13 10.501 0 15.208 3.108 21.183 7.13 6.699 4.39 14.303 9.51 28.787 9.51 14.484 0 22.088-4.938 28.787-9.51 5.975-4.022 10.863-7.13 21.183-7.13 10.5 0 15.208 3.108 21.183 7.13 6.699 4.39 14.303 9.51 28.787 9.51 14.484 0 22.088-4.938 28.787-9.51 5.974-4.022 10.863-7.13 21.183-7.13 10.5 0 15.208 3.108 21.182 7.13 6.699 4.39 14.303 9.51 28.787 9.51 14.484 0 22.088-4.938 28.787-9.51 5.975-4.022 10.863-7.13 21.183-7.13 10.501 0 15.208 3.108 21.364 7.13 6.699 4.39 14.303 9.51 28.787 9.51 14.484 0 22.088-4.938 28.787-9.51 5.975-4.022 10.863-7.13 21.364-7.13V45.332c-5 0-10 0-15 2.267s-11.233 6.069-12.5 6.8z"/></g><defs><clipPath id="clip0"><path fill="#fff" d="M0 0h330v80H0z"/></clipPath></defs></svg>
